!!!!SEGMENT: pl-sa--481-a-viii-121--005_anonim--la-liberte.krn
!!!cenid: 18xx:376
!!!COM: Anonim
!!!COM-rismid: pe30004985
!!!CDT:
!!!CNT:
!!!OTL: La Liberte
!!!PDT:
!!!AGN: Secular
!!!SMS-siglum: PL-SA
!!!SMS-shelfmark: 481/A VIII 121
!!!SMS-shelfwork: 005 W
!!!SMS-variant:
!!!SMS-altvar:
!!!NIFC-rismid: 1001070451
!!!URL-scan: http://bc.bdsandomierz.pl/dlibra/publication/1212/edition/1171/content
!!!ONB-nifc: Str. 5, s. 2-4
!!!key:
**kern	**kern
*part1	*part1
*staff2	*staff1
*Ipiano	*Iempty
*I"Piano	*
*I'P-no	*
*clefF4	*clefG2
*k[b-]	*k[b-]
*d:	*d:
*M2/4	*M2/4
*>[A,B,A]	*>[A,B,A]
*>A	*>A
!LO:TX:a:t=P:problem=błędnie wpisany klucz barytonowy	!LO:TX:a:i:t=La Liberte
8r	16cc\LL
.	16b-\JJ
=1	=1
8F/L	8aL 8f/
8F/	8a 8f/
8C/	8b- 8g/
8C/J	8b-J 8g/
=2	=2
8F/L	4.cc 4.a\
8C/	.
8FF/J	.
!	!LO:N:vis=8
8r	16dd\LL
!	!LO:N:vis=8
.	16ee\JJ
=3	=3
8F\L	16ff\LL
.	16cc\
8F\	16a\
.	16cc\JJ
8E\	16cc\LL
.	16b-\
8F\J	16b-\
.	16a\JJ
=4	=4
8C\L	16g/LL
.	16f#X/
8C\	16g/
.	16a/JJ
8C\J	8g\L
8r	16cc\L
.	16b-\JJ
=5	=5
8F\L	8aL 8f/
8F\	8a 8f/
8C\	8b- 8g/
8C\J	8b-J 8g/
=6	=6
8F/L	4.cc 4.a\
8C/	.
8FF/J	.
8r	16dd\LL
.	16ee\JJ
=7	=7
8F\L	16ff\LL
.	16cc\
8F\	16a\
.	16cc\JJ
8C\	16cc\LL
.	16b-\
8C\J	16a\
.	16g\JJ
=	=
8F/L	8f/L
8C/	8f/
8FF/J	8f/J
=8||;	=8||;
8r	16ee\LL
.	16ff\JJ
=9	=9
16C\LL	8gg\L
16G\	.
16E\	8gg\
16G\JJ	.
*rep	*
16C\LL	8ee\
16G\	.
16E\	8gg\J
16G\JJ	.
*Xrep	*
=10	=10
16D\LL	4gg\
16G\	.
16F\	.
16G\JJ	.
*rep	*
16D\LL	8ff\L
16G\	.
16F\	16dd\L
16G\JJ	16ee\JJ
*Xrep	*
=11	=11
16BBn\LL	8ff\L
16G\	.
16D\	8ff\J
16G\JJ	.
*rep	*
16BB\LL	8dd\L
16G\	.
16D\	8ff\J
16G\JJ	.
*Xrep	*
=12	=12
16C\LL	(4ff\
16G\	.
16E\	.
16G\JJ	.
*rep	*
16C\LL	8ee\L)
16G\	.
16E\	8aa\J
16G\JJ	.
*Xrep	*
=13	=13
*^	*
4E/	4C\	16gg\LL
.	.	16ff\
.	.	16ee\
.	.	16ff\JJ
8E/L	4C\	8gg\L
8F/J	.	8aa\J
!LO:LB:g=original	!LO:LB:g=original	!LO:LB:g=original
=14	=14	=14
4E/	4C\	16gg\LL
.	.	16ff\
.	.	16gg 16ee\
.	.	16ff\JJ
!	!	!LO:N:vis=8
8E/L	4C\	16gg\LL
!	!	!LO:N:vis=8
.	.	16ee\
!	!	!LO:N:vis=8
8F/J	.	16aa\
!	!	!LO:N:vis=8
.	.	16ff\JJ
*v	*v	*
=15	=15
8G\L	16gg\LL
.	16ff\
8C\J	16ee\
.	16ff\JJ
4G\	16gg\LL
.	16ff\
.	16ee\
.	16dd\JJ
=16	=16
4C/	16cc\LL
.	16bn\
.	16cc\
.	16dd\JJ
4r	16cc\LL
.	16dd\
.	16cc\
.	16b-X\JJ
!LO:TX:a:t=[segno]:problem=znak segno na kresce taktowej	!LO:TX:a:t=[segno]:problem=znak segno na kresce taktowej
=17||	=17||
*>B	*>B
*clefF4	*clefG2
*	*k[b-]
8r	16ff\LL
.	16gg\JJ
=18	=18
8FL 8D\	8aa\L
8A\J	8aa\
*rep	*
8FL 8D\	8aa\
8A\J	8aa\J
*Xrep	*
=19	=19
*rep	*
8FL 8D\	16gg#X\LL
.	16aa\
8A\J	16bb-\
.	16aa\JJ
*Xrep	*
*rep	*
8FL 8D\	16ggn\LL
.	16ff\
8A\J	16ee\
.	16dd\JJ
*Xrep	*
=20	=20
*rep	*
8FL 8D\	16dd\LL
.	16cc\
8A\J	16ee\
.	16dd\JJ
*Xrep	*
*rep	*
8FL 8D\	16ff\LL
.	16ee\
8A\J	16gg\
.	16ff\JJ
*Xrep	*
=21	=21
!LO:TX:a:t=P:problem=mixed beam	!
.	8qff/
8AA/L	16ee\LL
.	16dd#X\
8A\	16ee\
.	16ff\JJ
8A\J	8ee\L
8r	16ff\L
.	16gg\JJ
=22	=22
8FL 8D\	8aa\L
8A\J	8aa\
*rep	*
8FL 8D\	8aa\
8A\J	8aa\J
*Xrep	*
=23	=23
*rep	*
8FL 8D\	16gg#X\LL
.	16aa\
8A\J	16bb-\
.	16aa\JJ
*Xrep	*
*rep	*
8FL 8D\	16ggn\LL
.	16ff\
8A\J	16ee\
.	16dd\JJ
*Xrep	*
!LO:LB:g=original	!LO:LB:g=original
=24	=24
4D\	16dd\LL
.	16cc#X\
.	16ff 16dd\
.	16ee\JJ
!LO:TX:a:t=P:problem=mixed beam	!
8A\L	16gg\LL
.	16ee\
8AA/J	16dd\
.	16cc#\JJ
=25	=25
8FL 8D\	8dd\L
8A 8F\	8dd\
!	!LO:TX:b:t=D.C.
8FJ 8D\	8dd\J
!LO:TX:a:t=[segno]:problem=znak segno na kresce taktowej	!LO:TX:a:t=[segno]:problem=znak segno na kresce taktowej
==	==
*-	*-
!!!system-decoration: {(s1,s2)}
!!!AIN: 1 piano
!!!ENC: Marta Lawrence
!!!END: 2020-11-19
!!!ENC: Marcin Jachim
!!!END: 2020-06-14
